X:1
T:G minor Oliver Holden, 1806
T:Joseph Grigg, 1765 Amended by Benjamin Francis, 1787 88. 88. (L. M.)
T:Bensalem
T:Transcribed from The Psalmodist's Assistant, 1806.
%%score [ 1 2 3 4 ]
L:1/8
M:2/2
K:Bb
V:1 treble nm="Treble" snm="Tr."
V:2 treble nm="Counter" snm="C."
V:3 treble-8 nm="Tenor" snm="T."
V:4 bass nm="Bass" snm="B."
V:1
 d4 d2 d2 | d2 B2 G2 A2 | B3 B B2 B2 | A2 G2 G4 | ^F4 G4- | G4 d4 | d2 c2 B3 B | A3 A B4 | %8
w: 1.~Je- sus! and|shall it ev- er|be A mor- tal|man a- shamed|of thee!|* A-|shamed of thee, whom|an- gels praise,|
w: 2.~A- shamed of|Je- sus! soo- ner|far Let eve- ning|blush to own|a star;|* He|sheds the beams of|light di- vine,|
 d4 dc BA | B6 G2 | e4 d4 | d8 |] %12
w: Whose glo- * ries *|shine through|end- less|days!|
w: O'er this * be- *|nigh- ted|soul of|mine.|
V:2
 D4 D2 ^F2 | G2 D2 D2 E2 | F3 F F2 F2 | F2 E2 D4 | D4 D4- | D4 D4 | D2 F2 F3 F | F3 F F4 | %8
w: 3.~A- shamed of|Je- sus! just as|soon Let mid- night|be a- shamed|of noon;|* 'Tis|mid- night with my|soul till he|
w: 4.~A- shamed of|Je- sus! that dear|friend On whom my|hopes of heav'n|de- pend!|* No,|when I blush~– be|this my shame~–|
 G4 D2 F2 | F6 EF | G4 ^F4 | G8 |] %12
w: Bright mor- ning|star bid *|dark- ness|flee.|
w: That I no|more re- *|vere his|name.|
V:3
 G4 B2 A2 | B2 G2 B2 c2 | d3 d f2 d2 | c2 d2 B4 | A4 G4- | G4 A4 | B2 c2 d3 d | c3 c d4 | %8
w: 5.~A- shamed of|Je- sus! yes, I|may, When I've no|guilt to wash|a- way,|* No|tear to wipe, no|good to crave,|
w: 6.~'Til then~– nor|is my boa- sting|vain~– Till then, I|boast a Sa-|vior slain!|* And|O, may this my|glo- ry be,|
 g4 fe dc | d6 ed | (c2 B2) A4 | G8 |] %12
w: No fears * to *|quell, no *|soul * to|save.|
w: That Christ * is *|not a- *|shamed * of|me!|
V:4
"^_____________________________________\nEdited by B. C. Johnston, 2016\nMeasures 1-5 moved left a half note, to eliminate need for fermata." G,4 G,2 D,2 | %1
w: 7.~~His in- sti-|
 G,2 G,2 D,2 C,2 | B,,3 B,, B,,2 B,,2 | C,2 C,2 D,4 | D,4 G,4- | G,4 D,4 | G,2 A,2 B,3 B, | %7
w: tu- tions would I|prize, Take up the|cross, my shame|de- spise;|* Dare|to de- fend his|
 F,3 F, B,4 | G,4 D,2 D,2 | B,,6 C,2 | C,4 D,4 | G,8 |] %12
w: no- ble cause,|And yield o-|be- dience|to his|laws.|

